X:1
T:Title
%%score 1 2 3 4
L:1/8
M:3/2
K:C
V:1 treble nm="Part_1"
V:2 treble nm="Part_2"
V:3 treble nm="Part_3"
V:4 treble nm="Part_4"
V:1
 z4 z4 A4 | A8 A4 | _B4 A6 F2 | G4 A4 F4 | E4 z2 A2 G2 E2 | F4 E4 z4 | D4 D4 D4 | A,4 D6 C2 | %8
 C4 _B,8 | A,12- | A,8 A4 | A6 G2 A2 _B2 | A4 G4 z4 | A4 A2 A4 B2 | c6 B2 c2 A2 | G2 A4 _B2 G2 F2 | %16
 A4 E4 z2 A2 | G2 F2 E2 F2 E2 C2 | D4 C2 A,2 _B,4 | A,4 z2 A2 G2 F2 | E4 z2 F2 E2 D2 | %21
 C4 z2 c4 _B2 | A4 F2 G2 F2 E2 | !fermata!D12- | D8 z4 | A12- | A8 A4 | _B4 A6 G2 | F4 E8 | %29
 D4 z4 E4 | F4 A6 F2 | G4 z2 A2 G2 F2 | E4 C2 D4 E2 | F4 D2 F2 E2 C2 | D2 A,4 D2 C2 B,2 | D12 | %36
 z12 | E8 G4 | A8 A4 | A4 G2 F4 G2 | E4 z2 A2 G2 E2 | F2 E2 C2 D4 E2 | C4 _B,6 A,2 | A,8 z4 | %44
 A4 A2 A2 A4 | E4 z2 C2 F2 G2 | A2 _B4 A2 G2 F2 | A4 E4 z2 A2 | G4 A2 B4 A2 | c4 B4 A2 B2 | %50
 A4 G6 F2 | E12 | z12 | E2 E2 E2 D2 E2 F2 | G4 z4 C4 | E4 F2 E2 E2 D2 | C4 z4 G4 | G4 A8 | %58
 G4 F6 E2 | E8 D4 | C4 z4 G4 | A4 B6 A2 | c4 A2 _B4 c2 | A2 _B2 G2 A2 F2 G2 | A8 z4 | %65
 !fermata!c12- | c12 | !fermata!B12- | B8 z4 | A8 F4 | _B4 A4 F4 | !fermata!E12- | E8 z4 | %73
[M:3/2] D8 F2 G2 | A4 G2 _B2 A2 F2 | G2 F2 D2 E4 C2 | D6 G2 F2 E2 | G8 z4 | A4 A4 A4 | _B6 A4 G2 | %80
 ^F8 z4 | G4 G2 G4 G2 | A8 F4 | E4 z4 A4 | G2 c4 B2 A2 G2 | _B2 A4 G2 A2 F2 | E4 z4 F4 | %87
 E2 E2 A4 A4 | E2 G2 A2 F2 E2 F2 | D2 C2 F2 E2 D4 | E4 C2 D2 A,4 | D4 z2 A2 G2 F2 | A8 z4 | c8 B4 | %94
 A4 G2 G4 F2 | E4 z2 A2 G2 A2 | B4 z2 G2 A2 F2 | E4 z2 C4 D2 | E2 A4 G2 F2 E2 | D8 z4 | %100
 A4 B2 c4 B2 | G2 A4 E2 G4 | A2 F4 G2 E2 A2- | A2 G2 E2 F2 E2 C2 | D4 E2 F2 E2 D2 | F4 z4 z4 | %106
 E4 E2 G4 G2 | A4 A6 F2 | E8 z2 C2 | E2 E2 E2 E2 G4 | A12 | z2 F4 A4 c2- | c2 G4 E2 A2 G2 | %113
 E2 D4 G4 E2 | ^F6 G2 F2 E2 | G8 z4 | A8 A3 F | E8 z4 | D3 E F2 G4 ^F2 | G4 z4 z4 | A8 B4 | %121
 c4 B2 G2 A2 G2 | E2 G4 F2 E4 | D8 z4 | C8 C4 | D4 D2 A,4 B,2 | C8 z4 | A8 A4 | ^G8 z4 | %129
 A4 B2 c4 B2 | G2 A4 E2 G2 A2 | c2 B2 G2 A4 ^G2 | A12 | z12 |[M:3/2] A12 | A8 G4 | F8 E4 | %137
 E4 F4 D4 | z4 A6 G2 | F4 E6 C2 | D6 E2 C2 B,2 | D8 z4 | F4 A4 G4 | c4 _B4 z2 G2 | A6 ^G2 G2 ^F2 | %145
 A4 z4 A4 | F4 A6 G2 | F4 E6 C2 | D2 C2 A,4 _B,2 C2- | C2 D2 _E6 D2 | F2 G2 A6 F2 | G6 A2 F2 E2 | %152
 G12 | z12 | E8 E4 | D4 z4 A2 B2 | c6 B2 c2 A2 | G6 A2 F2 E2 | G4 z4 z4 | A4 A2 A4 G2 | F4 E4 D4 | %161
 C4 z4 D4 | E8 E4 | A,4 C6 D2 | E6 F2 G2 A2 | F2 G2 _B2 A2 F2 G2 | F2 D2 E6 C2 | D6 D2 B,2 C2 | %168
 D12 | z12 | A8 A4 | _B4 A6 G2 | F4 G4 E4 | D4 z4 A4 | G2 A2 F4 E2 F2 | D4 A,4 c2 B2 | A4 G6 F2 | %177
 A12 |] %178
V:2
 z4 z4 A4 | A8 A4 | G4 F6 D2 | E8 D4 | C6 A,2 B,2 C2 | D4 C4 z4 | F4 F4 G4 | A4 _B6 A2 | %8
 A6 G2 A2 F2 | A4 z2 G2 A2 F2 | E2 A2 G2 E2 F2 E2 | C2 D4 _E2 D2 _B,2 | C4 _B,4 z4 | %13
 A,4 A,2 D4 D2 | C2 D2 D4 A,4 | C4 D4 A,4 | A,8 A,4 | A,4 z4 A4 | A6 A2 G2 F2 | A4 G2 F2 E2 D2 | %20
 E4 C2 D2 C2 B,2 | C4 A,4 z2 A,2- | A,2 D4 E2 C2 B,2 | !fermata!D12- | D8 z4 | D12- | D8 D4 | %27
 F8 D4 | z4 A6 G2 | _B4 A6 G2 | F2 E2 C2 E2 D2 C2 | E8 z4 | C4 C4 F2 G2 | A6 G2 A2 _B2 | %34
 A6 G2 G2 F2 | A4 z2 _B2 A2 G2 | F4 D2 F2 E2 D2 | C12 | z12 | D8 D4 | A,8 A,4 | z4 A6 G2 | %42
 F4 z4 z4 | E4 A2 A2 A4 | E4 z2 C2 F2 G2 | A2 G4 F2 A2 G2 | D2 F4 E2 D4 | E4 C4 A,4 | %48
 z2 E4 E2 D2 C2 | E4 F2 G4 F2 | E4 G2 F2 E2 D2 | C8 z4 | E2 E2 E2 D2 E2 F2 | G4 z4 C4 | %54
 E4 F2 E2 E2 D2 | C4 z4 z4 | E8 E4 | E4 F6 D2 | E4 D6 B,2 | C6 C2 B,2 A,2 | C8 E4 | F4 D8 | %62
 A,4 D6 _B,2 | C4 _B,8 | A,8 z4 | !fermata!E12- | E12 | !fermata!G12- | G8 z4 | F8 F4 | F8 D4 | %71
 A,12- | A,12 |[M:3/2] A8 A2 G2 | F2 E4 D2 F2 D2 | E2 D4 A,2 C4 | z2 F2 E2 D4 C2 | D4 z2 D2 D2 E2 | %78
 F6 F4 E2 | D12 | z12 | E4 E2 E4 E2 | F6 E2 F2 D2 | C8 z4 | E4 A2 G2 E2 z2 | F6 D2 F2 G2 | %86
 A2 G4 E2 D4 | z4 z4 E4 | E2 D4 C2 B,2 C2 | A,2 z2 A4 G2 A2 | B2 A2 F2 G2 E2 D2- | %91
 D2 A,2 D2 E2 C2 B,2 | D12 | E4 C2 D4 E2 | F4 E2 E4 D2 | C8 z2 E2- | EG E2 D4 z2 G2 | %97
 A2 F2 E2 A4 A2 | G2 c4 B2 A2 G2 | B12 | c4 B2 A4 F2 | E12 | z12 | E4 G2 A4 G2 | F2 E2 C2 C4 B,2 | %105
 C12 | G4 G2 E4 E2 | C4 C6 B,2 | A,4 z2 C2 E2 E2 | G2 G2 A2 G2 E4 | F8 z4 | A4 F4 C4 | E6 E4 C2 | %113
 B,12 | z12 | z12 | D8 F4 | G8 z4 | A6 B4 A2 | G8 z4 | D8 D4 | A,8 A,4 | C4 D2 D4 ^C2 | D12 | %124
 E8 E4 | F4 F2 E4 D2 | C8 z4 | A,8 A,4 | E8 z4 | D6 A,4 B,2 | C4 D2 E4 D2 | C2 D2 C2 A,2 B,4 | %132
 A,12 | z12 |[M:3/2] D12 | F8 E4 | D8 A,4 | z4 A6 G2 | F4 E6 D2 | C4 z4 G4 | A6 A2 G2 F2 | A12 | %142
 A4 F4 C4 | E4 F6 E2 | E6 D2 D2 C2 | E4 z2 C2 E2 F2 | A4 B2 c4 B2 | A6 G2 A2 _B2 | A4 F6 G2 | %149
 A4 _B6 G2 | A4 F4 z2 D2 | E2 D2 C2 B,2 C2 A,2 | C4 z4 z4 | E4 F2 G4 A2 | A4 G2 z2 c2 B2 | %155
 G2 _B2 A2 F4 A2 | G2 E4 F2 G2 F2 | D2 E2 C2 D2 C2 B,2 | D12 | z12 | A4 A2 A4 G2 | F4 E4 D4 | %162
 =B,4 z4 E4 | C4 D2 E4 D2 | A,8 z4 | C8 D2 E2 | F4 G2 A2 _B4 | A6 G2 G2 F2 | A4 z4 A4 | A4 A6 F2 | %170
 D4 F6 G2 | F4 E8 | D4 z4 z4 | A4 G2 A2 F4 | E2 F2 D4 C2 D2 | B,4 C6 A,2 | D4 C6 B,2 | D12 |] %178
V:3
 z12 | z12 | z12 | z12 | z12 | z12 | z12 | z12 | z12 | z12 | z12 | z12 | z12 | z12 | z12 | z12 | %16
 z12 | z12 | z12 | z12 | z12 | z12 | z12 | z12 | z12 | D,12- | D,12 | D12- | D4 C8 | D8 A,4 | %30
 z4 F,8 | E,8 G,4 | A,8 F,4 | D,8 C,4 | F,4 G,4 E,4 | D,12- | D,12 | A,8 G,4 | F,4 A,8 | D,12 | %40
 C8 C4 | D4 A,4 D,4 | F,4 G,8 | A,12 | C12- | C8 A,4 | D4 C4 _B,4 | A,8 F,4 | E,4 G,8 | C,4 z4 C4 | %50
 C4 B,8 | C12- | C12 | C,12- | C,12 | C,12- | C,12 | z12 | z12 | z12 | z12 | z12 | z12 | z12 | %64
 z12 | !fermata!C12- | C12 | !fermata!G,12- | G,8 z4 | D12- | D12 | !fermata!C12- | C12 | %73
[M:3/2] D8 D4 | A,4 D8 | C2 D2 F2 E2 C2 E2 | D2 _B,4 G,2 A,4 | G,12 | F,12 | G,6 D4 _B,2 | A,12 | %81
 E,12 | D,12 | A,12 | C12 | D12 | C8 D4 | A,2 C4 D2 A,2 C2- | C2 B,2 A,4 G,2 F,2- | %89
 F,2 E,2 D,2 G,4 F,2 | E,2 A,4 G,2 A,2 F,2 | D,2 F,2 G,2 F,2 E,4 | D,12 | A,8 G,4 | F,4 C4 D4 | %95
 A,4 C8 | G,8 F,4 | A,12 | C12 | G,12 | F,12 | C4 A,4 G,2 C2- | C2 D2 _B,4 C2 A,2 | C4 C2 F,4 F,2 | %104
 _B,2 C2 A,2 F,2 G,4 | F,12 | C,12 | F,12 | C12- | C12 | F,12- | F,12 | C,12 | G,12 | A,12 | G,12 | %116
 z12 | z12 | z12 | z12 | z12 | z12 | z12 | z12 | z12 | z12 | z12 | z12 | z12 | z12 | z12 | z12 | %132
 z12 | z12 |[M:3/2] D,12- | D,12 | D8 C4- | C4 D8 | A,4 C4 B,4 | A,8 G,4 | F,4 E,8 | D,12 | D8 E4 | %143
 C4 D6 C2 | C4 B,8 | A,12- | A,8 A,4 | D,4 A,8 | D,8 D,4 | F,4 G,8 | D,8 F,4 | E,4 D,8 | C,12- | %153
 C,12 | C12 | D12 | C8 C4 | B,4 A,8 | G,12 | D,12- | D,12 | A,8 F,4 | E,8 E,4 | F,4 C,8 | C12 | %165
 F,8 F,4 | F,4 C,4 G,4 | F,4 E,8 | D,12- | D,12 | D12- | D4 C8 | D4 E4 C4 | D8 D4 | z4 D,8 | %175
 G,4 E,4 C,4 | F,4 E,8 | D,12 |] %178
V:4
 z12 | z12 | z12 | z12 | z12 | z12 | z12 | z12 | z12 | z12 | z12 | z12 | z12 | z12 | z12 | z12 | %16
 z12 | z12 | z12 | z12 | z12 | z12 | z12 | z12 | z12 | A,12- | A,12 | D,12 | A,12 | D,8 C4 | %30
 D4 A,8 | B,12 | z12 | A,4 B,4 C4 | A,4 z4 G,4 | A,4 A,4 A,4- | A,12 | z12 | C4 A,4 F,4 | A,4 A,8 | %40
 C,4 F,4 E,4 | D,8 D,4 | A,4 D8 | C8 C4 | C4 A,4 F,4 | C,8 D,4- | D,4 F,4 G,4 | A,4 C6 D2 | %48
 E2 D2 B,2 C2 B,2 A,2 | C4 G,4 C,4 | C,4 G,8 | C,12- | C,12 | C8 A,4 | G,4 G,8 | G,12- | G,12 | %57
 z12 | z12 | z12 | z12 | z12 | z12 | z12 | z12 | !fermata!A,12- | A,12 | !fermata!D12- | D12 | %69
 D,12- | D,4 F,8 | C,12- | C,8 z4 |[M:3/2] z12 | F,4 G,4 D,4 | A,12 | D,8 D,2 z2 | B,12 | C12 | %79
 z2 G,4 D,4 D,2 | D,12 | B,8 C4 | D12 | z12 | A,12 | D,12 | A,2 E,4 A,2 D,4 | %87
 C2 A,2 F,2 D,2 z2 A,2- | A,2 G,2 F,4 G,2 A,2- | A,2 G,2 A,2 z2 B,2 A,2 | G,2 z2 C2 B,2 C2 A,2 | %91
 F,2 D,2 C,2 z2 G,4 | A,12 | C4 A,4 B,4 | C4 C,4 z4 | z4 C,8 | D8 A,4 | C12 | C,12 | z12 | C12 | %101
 C,8 E,4 | z2 D,4 G,2 A,2 F,2 | C,6 C6 | z12 | A,12 | G,8 C2 B,2 | A,8 C4 | C,12- | C,12 | C12- | %111
 C12 | C12 | z12 | D,12 | D12 | z12 | z12 | z12 | z12 | z12 | z12 | z12 | z12 | z12 | z12 | z12 | %127
 z12 | z12 | z12 | z12 | z12 | z12 | z12 |[M:3/2] A,12- | A,12 | D,8 A,4- | A,4 D,8 | F,4 C,4 G,4 | %139
 A,4 C4 B,4 | A,4 G,8 | A,12 | D,4 F,4 E,4 | A,4 D,8 | z12 | C12- | C8 C4 | D4 C8 | F4 E4 D4 | %149
 C4 _B,6 C2 | D8 A,4 | G,4 F,6 E,2 | G,12- | G,12 | C,12 | z12 | C,8 C,4 | G,4 z4 A,4 | B,8 C4 | %159
 D4 D8 | A,12 | z4 z4 A,4 | G,8 G,4 | z4 G,8 | C,8 z4 | A,8 A,4 | A,4 C4 _B,4 | A,4 G,4 z4 | %168
 F,4 A,8 | D12 | D,8 D,4 | D,4 A,8 | D,4 C,4 A,4 | D,8 D,4 | G,4 A,8 | z4 A,4 G,4 | D,4 G,8 | %177
 A,12 |] %178

